src/assets/logos/favicon/favicon.svg

<svg height="64" viewBox="0 0 64 64" width="64" xmlns="http://www.w3.org/2000/svg" xmlns:xlink="http://www.w3.org/1999/xlink"><linearGradient id="a" x1="50%" x2="50%" y1="0%" y2="100%"><stop offset="0" stop-color="#009cf3"/><stop offset="1" stop-color="#16d6d9"/></linearGradient><linearGradient id="b" x1="100%" x2="0%" y1="50%" y2="50%"><stop offset="0" stop-color="#05a9ee"/><stop offset="1" stop-color="#08b1ea"/></linearGradient><linearGradient id="c" x1="100%" x2="0%" y1="50%" y2="50%"><stop offset="0" stop-color="#009cf3"/><stop offset="1" stop-color="#05a9ee"/></linearGradient><g fill="none" fill-rule="evenodd"><rect fill="#fff" height="64" rx="4" width="64"/><g transform="translate(14 7)"><g stroke="url(#a)" stroke-linecap="round" stroke-linejoin="round" stroke-width="2"><path d="m8.78318277 0h-7.78318277v50h7.78318277"/><path d="m17 18.0381509v-10.0381509h18.0651629v-8h-26.0651629v50h8z"/><path d="m1 13h21c4.3571429 0 7.5 1.2380952 9.9761905 3.8888889 2.1111111 2.2301587 3.0238095 5.8492063 3.0238095 10.8968254v22.2142857h-8v-.278015-20.0076993c0-3.515873-.4206349-5.6190476-1.4126984-6.984127-1-1.4206349-2.9285714-1.6746031-5.4206349-1.7301587h-11.1666667"/></g><path d="m8 20h4v2h-4z" fill="url(#b)"/><path d="m0 12h4v2h-4z" fill="url(#c)"/></g></g></svg>

<?xml version="1.0" encoding="UTF-8"?>
<svg width="64px" height="64px" viewBox="0 0 64 64" version="1.1" xmlns="http://www.w3.org/2000/svg" xmlns:xlink="http://www.w3.org/1999/xlink">
    <!-- Generator: Sketch 50.2 (55047) - http://www.bohemiancoding.com/sketch -->
    <title>Group</title>
    <desc>Created with Sketch.</desc>
    <defs>
        <linearGradient x1="50%" y1="0%" x2="50%" y2="100%" id="linearGradient-1">
            <stop stop-color="#009CF3" offset="0%"></stop>
            <stop stop-color="#16D6D9" offset="100%"></stop>
        </linearGradient>
        <linearGradient x1="100%" y1="50%" x2="0%" y2="50%" id="linearGradient-2">
            <stop stop-color="#05A9EE" offset="0%"></stop>
            <stop stop-color="#08B1EA" offset="100%"></stop>
        </linearGradient>
        <linearGradient x1="100%" y1="50%" x2="0%" y2="50%" id="linearGradient-3">
            <stop stop-color="#009CF3" offset="0%"></stop>
            <stop stop-color="#05A9EE" offset="100%"></stop>
        </linearGradient>
    </defs>
    <g id="icons" stroke="none" stroke-width="1" fill="none" fill-rule="evenodd">
        <g id="favicon" transform="translate(-30.000000, -30.000000)">
            <g id="Group" transform="translate(30.000000, 30.000000)">
                <rect id="Rectangle-2" fill="#FFFFFF" x="0" y="0" width="64" height="64" rx="4"></rect>
                <g id="shape" transform="translate(14.000000, 7.000000)">
                    <polyline id="I" stroke="url(#linearGradient-1)" stroke-width="2" stroke-linecap="round" stroke-linejoin="round" points="8.78318277 0 1 0 1 50 1 50 8.78318277 50"></polyline>
                    <polygon id="F" stroke="url(#linearGradient-1)" stroke-width="2" stroke-linecap="round" stroke-linejoin="round" points="17 18.0381509 17 8 35.0651629 8 35.0651629 0 9 0 9 50 17 50"></polygon>
                    <path d="M1,13 L22,13 C26.3571429,13 29.5,14.2380952 31.9761905,16.8888889 C34.0873016,19.1190476 35,22.7380952 35,27.7857143 L35,50 L27,50 L27,49.721985 L27,29.7142857 C27,26.1984127 26.5793651,24.0952381 25.5873016,22.7301587 C24.5873016,21.3095238 22.6587302,21.0555556 20.1666667,21 L9,21" id="N" stroke="url(#linearGradient-1)" stroke-width="2" stroke-linecap="round" stroke-linejoin="round"></path>
                    <rect id="Rectangle-3" fill="url(#linearGradient-2)" x="8" y="20" width="4" height="2"></rect>
                    <rect id="Rectangle-4" fill="url(#linearGradient-3)" x="0" y="12" width="4" height="2"></rect>
                </g>
            </g>
        </g>
    </g>
</svg>
